public/assets/sponsors/sketch-dark.svg

<svg viewBox="0 0 1407 1288" fill="none" xmlns="http://www.w3.org/2000/svg">
<path d="M706.658 0.18653L1092.91 43.751C1101.06 44.6705 1108.46 48.9314 1113.35 55.5165L1400.85 442.739C1409.07 453.804 1408.55 469.074 1399.61 479.56L714.6 1282.72C709.299 1288.93 699.959 1289.68 693.741 1284.38C693.144 1283.87 692.589 1283.31 692.08 1282.72L7.07331 479.56C-1.87002 469.074 -2.38582 453.804 5.82952 442.739L293.327 55.5165C298.216 48.9314 305.621 44.6705 313.773 43.751L700.022 0.18653C702.227 -0.0621768 704.453 -0.0621768 706.658 0.18653ZM786.84 83.7279C784.576 81.4532 780.96 81.2518 778.458 83.2612C776.001 85.234 775.422 88.6772 776.968 91.3165L777.496 92.0819L995.31 363.101C997.421 365.728 998.572 368.996 998.572 372.364C998.572 380.125 992.593 386.489 984.988 387.106L983.775 387.155H422.905C419.535 387.155 416.266 386.005 413.638 383.895C407.622 379.063 406.381 370.491 410.574 364.189L411.37 363.101L629.184 92.0819C631.195 89.5807 630.993 85.9665 628.717 83.704C626.483 81.4826 622.996 81.2894 620.543 83.1185L619.841 83.7279L324.766 380.274C322.407 382.645 319.154 383.907 315.813 383.749C309.667 383.458 304.838 378.532 304.549 372.511L304.549 371.37L314.727 156.57C314.863 153.703 312.92 151.152 310.12 150.519C307.197 149.859 304.291 151.484 303.271 154.214L303.042 154.986L247.132 402.216C245.219 410.673 238.849 417.363 230.595 419.738L229.026 420.132L90.593 449.944C87.8671 450.531 85.9209 452.941 85.9209 455.728C85.9209 458.723 88.1475 461.198 91.0364 461.59L91.8396 461.644H229.931C237.96 461.644 245.403 465.709 249.753 472.37L250.582 473.737L581.846 1064.39C584.124 1068.46 589.153 1070.07 593.368 1068.09C597.509 1066.14 599.445 1061.4 597.989 1057.18L597.624 1056.28L329.82 486.945C328.709 484.582 328.132 482.004 328.132 479.393C328.132 470.017 335.406 462.339 344.62 461.689L345.888 461.644H1060.79C1063.4 461.644 1065.98 462.22 1068.35 463.331C1076.84 467.32 1080.69 477.167 1077.36 485.779L1076.86 486.945L809.056 1056.28C807.074 1060.49 808.686 1065.52 812.749 1067.8C816.74 1070.03 821.72 1068.86 824.316 1065.21L824.834 1064.39L1156.1 473.737C1160.03 466.735 1167.21 462.233 1175.15 461.698L1176.75 461.644H1314.84C1317.63 461.644 1320.04 459.699 1320.63 456.974C1321.26 454.046 1319.6 451.157 1316.86 450.166L1316.09 449.944L1177.65 420.132C1169.17 418.306 1162.42 412.007 1159.96 403.78L1159.55 402.216L1103.64 154.986C1103.01 152.186 1100.45 150.245 1097.59 150.38C1094.59 150.522 1092.22 152.862 1091.97 155.765L1091.95 156.57L1102.13 371.37C1102.29 374.71 1101.03 377.961 1098.65 380.319C1094.31 384.64 1087.45 384.892 1082.81 381.089L1081.91 380.274L786.84 83.7279Z" fill="white"/>
</svg>

<svg xmlns="http://www.w3.org/2000/svg" viewBox="0 0 1407 1288" fill="none" xmlns:v="https://vecta.io/nano"><path d="M706.658.187l386.252 43.564a29.59 29.59 0 0 1 20.44 11.766l287.5 387.222c8.22 11.065 7.7 26.335-1.24 36.821L714.6 1282.72a14.81 14.81 0 0 1-20.859 1.66c-.597-.51-1.152-1.07-1.661-1.66L7.073 479.56c-8.943-10.486-9.459-25.756-1.244-36.821L293.327 55.517c4.889-6.585 12.294-10.846 20.446-11.766L700.022.187c2.205-.249 4.431-.249 6.636 0zm80.182 83.541a6.28 6.28 0 0 0-8.382-.467c-2.457 1.973-3.036 5.416-1.49 8.055l.528.765L995.31 363.101a14.79 14.79 0 0 1 3.262 9.263c0 7.761-5.979 14.125-13.584 14.742l-1.213.049h-560.87a14.8 14.8 0 0 1-9.267-3.26 14.79 14.79 0 0 1-3.064-19.706l.796-1.088L629.184 92.082a6.27 6.27 0 0 0-.467-8.378 6.28 6.28 0 0 0-8.174-.585l-.702.609-295.075 296.546a11.84 11.84 0 0 1-20.217-7.763v-1.141l10.178-214.8a5.92 5.92 0 0 0-4.607-6.051c-2.923-.66-5.829.965-6.849 3.695l-.229.772-55.91 247.23a23.67 23.67 0 0 1-16.537 17.522l-1.569.394-138.433 29.812a5.92 5.92 0 0 0 .443 11.646l.803.054h138.091a23.68 23.68 0 0 1 19.822 10.726l.829 1.367 331.264 590.653c2.278 4.07 7.307 5.68 11.522 3.7 4.141-1.95 6.077-6.69 4.621-10.91l-.365-.9L329.82 486.945a17.75 17.75 0 0 1-1.688-7.552c0-9.376 7.274-17.054 16.488-17.704l1.268-.045h714.902a17.81 17.81 0 0 1 7.56 1.687 17.75 17.75 0 0 1 9.01 22.448l-.5 1.166-267.804 569.335a8.88 8.88 0 0 0 3.693 11.52c3.991 2.23 8.971 1.06 11.567-2.59l.518-.82L1156.1 473.737c3.93-7.002 11.11-11.504 19.05-12.039l1.6-.054h138.09c2.79 0 5.2-1.945 5.79-4.67.63-2.928-1.03-5.817-3.77-6.808l-.77-.222-138.44-29.812c-8.48-1.826-15.23-8.125-17.69-16.352l-.41-1.564-55.91-247.23a5.92 5.92 0 0 0-6.05-4.606c-3 .142-5.37 2.482-5.62 5.385l-.02.805 10.18 214.8c.16 3.34-1.1 6.591-3.48 8.949a11.84 11.84 0 0 1-15.84.77l-.9-.815L786.84 83.728z" fill="#fff"/></svg>
